src/lib/packages/icons/src/assets/line/envelope-times.svg

<svg width="24" height="24" viewBox="0 0 24 24" fill="none" xmlns="http://www.w3.org/2000/svg">
<path d="M11.75 19C11.75 19.414 11.414 19.75 11 19.75H5C2.582 19.75 1.25 18.418 1.25 16V7C1.25 4.582 2.582 3.25 5 3.25H17C19.418 3.25 20.75 4.582 20.75 7V10C20.75 10.414 20.414 10.75 20 10.75C19.586 10.75 19.25 10.414 19.25 10V7C19.25 5.423 18.577 4.75 17 4.75H5C3.423 4.75 2.75 5.423 2.75 7V16C2.75 17.577 3.423 18.25 5 18.25H11C11.414 18.25 11.75 18.586 11.75 19ZM17.106 7.55901C16.864 7.22501 16.3951 7.149 16.0581 7.394L11.146 10.966C11.058 11.029 10.941 11.029 10.853 10.966L5.94092 7.394C5.60392 7.149 5.13507 7.22601 4.89307 7.55901C4.64907 7.89401 4.72311 8.36399 5.05811 8.60699L9.96997 12.179C10.278 12.403 10.639 12.515 10.999 12.515C11.359 12.515 11.7211 12.403 12.0281 12.179L16.9399 8.60699C17.2759 8.36299 17.351 7.89401 17.106 7.55901ZM22.75 17C22.75 19.619 20.619 21.75 18 21.75C15.381 21.75 13.25 19.619 13.25 17C13.25 14.381 15.381 12.25 18 12.25C20.619 12.25 22.75 14.381 22.75 17ZM21.25 17C21.25 15.208 19.792 13.75 18 13.75C16.208 13.75 14.75 15.208 14.75 17C14.75 18.792 16.208 20.25 18 20.25C19.792 20.25 21.25 18.792 21.25 17ZM19.53 15.47C19.237 15.177 18.762 15.177 18.469 15.47L17.999 15.94L17.5291 15.47C17.2361 15.177 16.761 15.177 16.468 15.47C16.175 15.763 16.175 16.238 16.468 16.531L16.938 17.001L16.468 17.471C16.175 17.764 16.175 18.239 16.468 18.532C16.614 18.678 16.806 18.752 16.998 18.752C17.19 18.752 17.3821 18.679 17.5281 18.532L17.998 18.062L18.468 18.532C18.614 18.678 18.806 18.752 18.998 18.752C19.19 18.752 19.3821 18.679 19.5281 18.532C19.8211 18.239 19.8211 17.764 19.5281 17.471L19.0581 17.001L19.5281 16.531C19.8231 16.237 19.823 15.763 19.53 15.47Z" fill="currentColor"/>
</svg>

<svg xmlns="http://www.w3.org/2000/svg" width="24" height="24" fill="none"><path fill="currentColor" d="M11.75 19a.75.75 0 0 1-.75.75H5c-2.418 0-3.75-1.332-3.75-3.75V7c0-2.418 1.332-3.75 3.75-3.75h12c2.418 0 3.75 1.332 3.75 3.75v3a.75.75 0 0 1-1.5 0V7c0-1.577-.673-2.25-2.25-2.25H5c-1.577 0-2.25.673-2.25 2.25v9c0 1.577.673 2.25 2.25 2.25h6a.75.75 0 0 1 .75.75Zm5.356-11.441a.75.75 0 0 0-1.048-.165l-4.912 3.572a.25.25 0 0 1-.293 0L5.941 7.394a.75.75 0 0 0-.883 1.213l4.912 3.572a1.748 1.748 0 0 0 2.058 0l4.912-3.572a.748.748 0 0 0 .166-1.048ZM22.75 17A4.756 4.756 0 0 1 18 21.75 4.756 4.756 0 0 1 13.25 17 4.756 4.756 0 0 1 18 12.25 4.756 4.756 0 0 1 22.75 17Zm-1.5 0A3.254 3.254 0 0 0 18 13.75 3.254 3.254 0 0 0 14.75 17 3.254 3.254 0 0 0 18 20.25 3.254 3.254 0 0 0 21.25 17Zm-1.72-1.53a.75.75 0 0 0-1.061 0l-.47.47-.47-.47a.75.75 0 0 0-1.061 1.061l.47.47-.47.47a.75.75 0 0 0 1.06 1.061l.47-.47.47.47a.748.748 0 0 0 1.06 0 .75.75 0 0 0 0-1.061l-.47-.47.47-.47a.748.748 0 0 0 .002-1.061Z"/></svg>
